X: 903
T: Corney Drew's hornpipe
C: anon.
O: Ireland
B: Francis O'Neill: "The Dance Music of Ireland" (1907) no. 903
R: Hornpipe
Z: Transcribed by Frank Nordberg - http://www.musicaviva.com
F: http://www.musicaviva.com/abc/tunes/ireland/oneill-1001/oneill-1001-090
3.abc
M: 2/4
L: 1/16
K: G
(3DEF|G2GF GABd|e2de gedB|edef gedB|AGAB AcBA|G2GF GABd|e2de gedB|egde Bd
AB|G2GG G2:|
|:(3def|g2fg a2ga|bgaf gfed|cBcd agfe|d^cde d2(3def|g2fg a2ga|bgaf gfed|(
3def de BdAB|G2GG G2:|
W:
W:
W: From Musica Viva - http://www.musicaviva.com
W: the Internet center for free sheet music downloads.


